X:1
T:Title
T:Best melodies
T:Max Lee
C:Composer
L:1/8
M:4/4
K:G
V:1 treble nm="Piano" snm="Pno."
V:1
 z2 z2 z2[Q:1/4=200]"^\n"[Q:1/4=240] (d^c) | .d2 (d^c) .d2 .e2 | (f(g)(f)e) .d2 (d'^c') | %3
 .d'2 (d'^c') .d'2 .b2 | (a(b)(a)g) .f2 (d^c) | .d2 (d^c) .d2 .e2 | (f(g)(f)e) .d2 (d'^c') | %7
 .b2 (ba) (^g(a)(b)^g) | a6 (ba) | .=g2 (gf) .g2 (gf) | (g2 d2) .B2 (ba) | .g2 (gf) .g2 (gf) | %12
 (g2 e2) .f2 .d2 | (e(f)g).e (^c(d)e).^c | d8 |][Q:1/4=185] (f3 g) (a3 g) | (f3 a) g4 |] %17
[Q:1/4=180] (!>!.!3!b3 b) (b2 g).e' | e'4 b2 (g'2 | (f'2) (e'2) (c'2) e'2) | b6 b2 | %21
 c'2 (ba) a2 a2 | e'6 b2 | c'2 (ba) a2 a2 | ^d'4 (b3 b) | b4 (g2 e'2) | e'4 b2 (g'2 | %27
 (f'2) (e'2) (c'2) e'2) | b8 |] z8 | z8 | z8 | z8 | z8 | z8 | z8 | z8 | z8 | z8 | z8 | z8 | z8 | %42
 z8 | z8 | z8 | z8 | (z3 z) z4 |] %47

